X:5402
T:R\'il Mh\'or
T:Big Reel of Ballynacally, The
T:Big Reel, The
O:england
N:IrTrad, 6/99
R:reel
D:Solas: Sunny Spells and Scattered Showers
M:C|
K:G
DG~G2 A2dc|AGFG AGFG|DG~G2 A2dc|AGFG =F3E|
DG~G2 A2dc|AGFG ABcA|d2de fd~d2|dedc AG~G2:|
|:g2dg ~g2dg|g2ag fdef|g2fg ~a3g|fdcA BGBd|
g2fg a=f~f2|=fgfd ~e3c|d2de ^fedc|AGFG AG~G2:|
